assets/img/icons/duotone-icons/Electric/Iron.svg

<?xml version="1.0" encoding="UTF-8"?>
<svg width="24px" height="24px" viewBox="0 0 24 24" version="1.1" xmlns="http://www.w3.org/2000/svg" xmlns:xlink="http://www.w3.org/1999/xlink">
    <!-- Generator: Sketch 52.2 (67145) - http://www.bohemiancoding.com/sketch -->
    <title>Stockholm-icons / Electric / Iron</title>
    <desc>Created with Sketch.</desc>
    <g id="Stockholm-icons-/-Electric-/-Iron" stroke="none" stroke-width="1" fill="none" fill-rule="evenodd">
        <rect id="bound" x="0" y="0" width="24" height="24"></rect>
        <path d="M20.1428571,18 L19,20 L2,20 C2,19.3209573 2.04834392,18.653206 2.14177772,18 L20.1428571,18 Z M17,7 L23,7 L23,9 L17,9 L17,7 Z" id="Combined-Shape" fill="#335EEA" opacity="0.3"></path>
        <path d="M21.2857143,16 L2.57975736,16 C4.30085574,10.2170221 9.65795873,5 16,5 L17.5,5 L23,13 L21.2857143,16 Z M10.9899495,8.85857864 C10.4219207,8.93972561 10,9.42620429 10,10 C10,10.5522847 10.4477153,11 11,11 L15.5,11 C16.3284271,11 17,10.3284271 17,9.5 C17,9.43844084 16.9956306,9.37695932 16.9869249,9.31601886 C16.8853149,8.60474902 16.2263456,8.11052206 15.5150758,8.21213203 L10.9899495,8.85857864 Z M7,14 C7.55228475,14 8,13.5522847 8,13 C8,12.4477153 7.55228475,12 7,12 C6.44771525,12 6,12.4477153 6,13 C6,13.5522847 6.44771525,14 7,14 Z" id="Combined-Shape" fill="#335EEA"></path>
    </g>
</svg>

<svg width="24" height="24" viewBox="0 0 24 24" xmlns="http://www.w3.org/2000/svg"><g fill="none" fill-rule="evenodd"><path d="M0 0h24v24H0z"/><path d="M20.143 18L19 20H2c0-.679.048-1.347.142-2h18zM17 7h6v2h-6V7z" fill="#335EEA" opacity=".3"/><path d="M21.286 16H2.58C4.3 10.217 9.658 5 16 5h1.5l5.5 8-1.714 3zM10.99 8.859c-.568.08-.99.567-.99 1.141a1 1 0 001 1h4.5a1.5 1.5 0 001.487-1.684 1.3 1.3 0 00-1.472-1.104l-4.525.647zM7 14a1 1 0 100-2 1 1 0 000 2z" fill="#335EEA"/></g></svg>
